img/svg-filtro-inativo.svg

<svg xmlns="http://www.w3.org/2000/svg" height="48" width="48"><path d="m29 24.75-2.15-2.15L36 11H15.25l-3-3H38.6q1.05 0 1.55.95t-.2 1.8Zm11.65 20.2L28 32.3V38q0 .85-.575 1.425Q26.85 40 26 40h-4q-.85 0-1.425-.575Q20 38.85 20 38V24.3L3.05 7.35 5.2 5.2l37.6 37.6ZM26.85 22.6Z"/></svg>

<svg xmlns="http://www.w3.org/2000/svg" height="48" width="48"><path d="M29 24.75 26.85 22.6 36 11H15.25L12.25 8H38.6Q39.65 8 40.15 8.95Q40.65 9.9 39.95 10.75ZM40.65 44.95 28 32.3V38Q28 38.85 27.425 39.425Q26.85 40 26 40H22Q21.15 40 20.575 39.425Q20 38.85 20 38V24.3L3.05 7.35L5.2 5.2L42.8 42.8ZM26.85 22.6Z"/></svg>
